X:1
T:Unto Him Will I Sing
T:Unto Him Will I Sing
T:M. A. Aulick
T:Palmer Hartsough, 1904
T:Public Domain Courtesy of the Cyber Hymnal™
T:Public Domain Courtesy of the Cyber Hymnal™
C:M. A. Aulick
Z:Public Domain
Z:Courtesy of the Cyber Hymnal™
%%score ( 1 2 ) ( 3 4 )
L:1/8
Q:1/4=106
M:4/4
K:G
V:1 treble 
V:2 treble 
V:3 bass 
V:4 bass 
V:1
 DD | [DG]2 [DG]2 [DG]2 [DG][DA] | [GB]2 [FA]2 G2 [DF][DG] | [FA]2 [FA]2 [FA]2 GG | %4
w: 1.~When the|ris- ing dawn drives a-|way the night, When the|sun looks forth with his|
w: 2.~When the|even- ing comes and the|sha- dows fall, When the|world grows still at the|
w: 3.~Ev- ery|morn I’ll learn of His|ho- ly word, Ev- ery|eve His truth shall with|
 [Ac]2 [GB]2 [FA]2 G[FA] | [GB]2 [GB]2 [GB]2 [FA]G | [EG]2 [CE]2 [EG]2 [DG][EA] | %7
w: beams so bright, When the|glad world rings with its|pure de- light, Then my|
w: home- ward call, When the|peace- ful night spreads her|couch for all, Then my|
w: joy be heard, And at|last in death, with my|bless- èd Lord, Then my|
 [DB]2 [Dc][DB] [DA]2 [DG][DA] | [DB]6 DD | [DG]2 [DG]2 [DG]2 [DG][DA] | [GB]2 [FA]2 G2 [DF][DG] | %11
w: voice un- to God will I|raise. Un- to|Him who sleeps not the|lone hours thro’, Un- to|
w: voice un- to God will I|raise. Un- to|Him who helps us thro’|all the day, Un- to|
w: voice un- to God will I|raise. Un- to|Him who bless- es from|boun- ties vast, Un- to|
 [FA]2 [FA]2 [FA]2 GG | [Ac]2 [GB]2 [FA]2 G[FA] | [GB]2 [GB]2 [GB]2 [FA]G | %14
w: Him who guards us in|love so true, Un- to|Him whose mer- cies are|
w: Him who guides us thro’|all the way, Un- to|Him who keeps us while|
w: Him who leads us till|life is past, Un- to|Him who crowns us in|
 [EG]2 [CE]2 [EG]2 [DG][EA] | [DB]2 [Dc][DB] [DA]2 [DB][CA] | [B,G]6 ||"^Refrain" [GB][Ac] | %18
w: ev- er new, Un- to|Him will I sing all my|days.|To the|
w: here we stay, Un- to|Him will I sing all my|days.||
w: Heav’n at last, Un- to|Him will I sing all my|days.||
 [Bd]6 [DB][CA] | [B,G]6 [B,G][DA] | [GB]6 [Ac][GB] | [FA]6 [Bd][Ac] | [GB]6 [DA][DG] | %23
w: praise of my|king, While I|live will I|sing; To the|praise of my|
w: |||||
w: |||||
 [CE]6 [DG][DA] | [DB]2 [Dc][DB] [FA]2 [FA][FA] | G6 |] %26
w: king, While I|live, while I live, will I|sing.|
w: |||
w: |||
V:2
 DD | x8 | x4 G2 x2 | x6 GG | x6 G x | x7 G | x8 | x8 | x6 DD | x8 | x4 G2 x2 | x6 GG | x6 G x | %13
 x7 G | x8 | x8 | x6 || x2 | x8 | x8 | x8 | x8 | x8 | x8 | x8 | G6 |] %26
V:3
 [G,B,][G,B,] | [G,B,]2 [G,B,]2 [G,B,]2 [G,B,][G,C] | [G,D]2 [D,C]2 [G,B,]2 [A,C][G,B,] | %3
w: ~ ~|~ ~ ~ ~ ~|~ ~ ~ ~ ~|
 [D,D]2 [D,D]2 [D,D]2 [E,B,][E,B,] | [F,D]2 [G,D]2 [D,D]2 [B,,D][D,D] | %5
w: ~ ~ ~ ~ ~|~ ~ ~ ~ ~|
 [G,D]2 [G,D]2 [G,D]2 [G,C][G,B,] | [C,C]2 [C,G,]2 [C,C]2 [C,G,][C,G,] | %7
w: ~ ~ ~ ~ ~|~ ~ ~ ~ ~|
 [D,G,]2 [D,A,][D,G,] [D,F,]2 [B,,G,][D,F,] | G,6 [G,B,][G,B,] | %9
w: ~ ~ ~ ~ ~ ~|~ ~ ~|
 [G,B,]2 [G,B,]2 [G,B,]2 [G,B,][G,C] | [G,D]2 [D,C]2 [G,B,]2 [A,C][G,B,] | %11
w: ~ ~ ~ ~ ~|~ ~ ~ ~ ~|
 [D,D]2 [D,D]2 [D,D]2 [E,B,][E,B,] | [F,D]2 [G,D]2 [D,D]2 [B,,D][D,D] | %13
w: ~ ~ ~ ~ ~|~ ~ ~ ~ ~|
 [G,D]2 [G,D]2 [G,D]2 [G,C][G,B,] | [C,C]2 [C,G,]2 [C,C]2 [C,G,][C,G,] | %15
w: ~ ~ ~ ~ ~|~ ~ ~ ~ ~|
 [D,G,]2 [D,A,][D,G,] [D,F,]2 [D,G,][D,F,] | [G,,G,]6 || z2 | z2 [G,D][G,D] [G,D]2 z2 | %19
w: ~ ~ ~ ~ ~ ~|~||To the praise|
 z2 [G,,G,][G,,G,] [G,,G,]2 z2 | z2 [G,D][G,D] [G,D]2 z2 | z2 [D,D][D,D] [D,D]2 z2 | %22
w: of my king,|While I live|I will sing,|
 z2 [G,D][G,D] [G,D]2 [G,C][G,B,] | [C,C]2 [C,G,][C,G,] [C,G,]2 [B,,G,][D,F,] | %24
w: To the praise of my|king, of my king, * *|
 G,2 [F,A,]G, [D,D]2 [D,C][D,C] | [G,,G,B,]6 |] %26
w: ||
V:4
 x2 | x8 | x8 | x6 E, x | x8 | x8 | x8 | x8 | G,6 x2 | x8 | x8 | x6 E, x | x8 | x8 | x8 | x8 | %16
 x6 || x2 | x8 | x8 | x8 | x8 | x8 | x8 | G,2 G, x5 | x6 |] %26

